X:1
T:Title
%%score { ( 1 3 ) | ( 2 4 ) }
L:1/8
M:4/4
K:C
V:1 treble nm="Grand Piano"
V:3 treble 
V:2 bass 
V:4 bass 
V:1
 z4 z2[Q:1/4=112] G2 | [CEc]2 [CEB]2 [CEA]2 [CFc]2 | z2 [B,FG]4[K:bass][K:treble] z2 | %3
 [CEA]2 [CEB]2 [CEA]2 [G,CE]2 | G6 z2 | [G,CE]2 [G,CE]2 [^G,DE]2 [G,DE]2 | %6
 [CEc]>[DEB] [CEA]4 [CEAc]2 | [B,EGB]2 [GB]2 [B,_EAB]2 [B,EF]2 | B6 z2 | %9
 [CEc]2 [CEB]2 [CEA]2 [CGc]2 | [B,FB]>[B,FA] [B,FG]4 [B,FG]2 | [CEA]2 [CEG]2 [CGc]2 [EGe]2 | %12
 A6 z2 | [DAd]2 [DAc]2 [_EAB]2 [EAc]2 | [EG]2 G4 ^F2 | [CFA]2 [DFA]2 [DFB]2 [B,FG]2 | %16
[M:3/4] [CEGc]6 |[M:1/4] z2 |[M:4/4] c3 B [EGd]2 [CGc]2 | [CFA]6[K:bass][K:treble] z2 | %20
 d3 ^c [FAe]2 [DAd]2 | [DGB]6 z2 | [CGc]2 [CGc]2 [EA^c]2 [EAc]2 | [FA]2 A4 z2 | %24
 [G,CEG]2 [CEAc]2 [DFAc]2 [B,FGB]2 |[M:3/4] [CEGc]6 |] %26
V:2
 z8 | [C,,C,]2 [B,,,G,,]2 [C,,C,]2 [E,,E,]2 | [E,,D,]2 [G,,,G,,]2 z2 [G,,,G,,]2 | %3
 [C,,C,]2 [G,,,G,,]2 [C,,C,]2 [C,,C,]2 | [B,,,B,,]2 [A,,,A,,]2 [G,,,G,,]2 [B,,,B,,]2 | %5
 [C,,C,]2 [C,,C,]2 [B,,,B,,]2 [B,,,B,,]2 | [A,,,A,,]2 [C,,C,]2 [E,,E,]2 [A,,,A,,]2 | %7
 z2 [B,E]2 [B,,,B,,]4 | [E,,E,]2 [E,,E,]2 [D,,D,]2 [G,,G,]2 | %9
 [C,,C,]2 [G,,,G,,]2 [C,,C,]2 [E,,E,]2 | [D,,D,]2 [G,,,G,,]2 [D,,D,]2 [G,,,G,,]2 | %11
 [C,,C,]2 [C,,C,]2 [E,,E,]2 [C,,C,]2 | [F,,F,]2 [E,,E,]2 [D,,D,]2 [F,,F,]2 | %13
 [F,,F,]2 [F,,F,]2 [^F,,^F,]2 [F,,F,]2 | [G,,G,]2 [E,,E,]2 [C,,C,]2 [C,,C,]2 | %15
 [F,,F,]2 [D,,D,]2 [G,,G,]2 [G,,,G,,]2 |[M:3/4] [C,,C,]2 G,,2 C,,2 |[M:1/4] G2 | %18
[M:4/4] [C,,C,]2 [G,,,G,,]2 [C,,C,]2 [E,,E,]2 | [F,,F,]2 G,,2 F,,2 [E,,E,]2 | %20
 [D,,D,]2 [A,,,A,,]2 [D,,D,]2 [F,,F,]2 | [G,,G,]2 A,,2 G,,2 [F,,F,]2 | %22
 [E,,E,]2 [E,,E,]2 [A,,A,]2 [G,,G,]2 | [F,,F,]2 [F,,F,]2 [F,,F,]2 z z/ G/ | %24
 G,,2 [A,,A,]2 [D,,D,]2 [G,,,G,,]2 |[M:3/4] [C,,C,]2 G,,2 C,,2 |] %26
V:3
 x8 | x8 | [B,FB]>[B,FA] z2[K:bass] [E,,D,]2[K:treble] [B,FG]2 | x8 | %4
 [G,D]2 [G,C]2 [G,B,]2 [G,DF]2 | x8 | x8 | x8 | [B,EG]2 [B,EG]2 [B,FG]2 [B,FG]2 | x8 | x8 | x8 | %12
 [CF]2 [^CG]2 [DF]2 [=CFA]2 | x8 | e>c C2 [CE]2 [CE]->[CEG] | x8 |[M:3/4] x6 |[M:1/4] x2 | %18
[M:4/4] [EG]2 [EG]2 z4 | z2[K:bass] G,2 F,2[K:treble] [GA]2 | [FA]2 [FA]2 z4 | z2 A,2 G,2 [B,DG]2 | %22
 x8 | e>d [CF]2 [CF]2 [C_EA]2 | x8 |[M:3/4] x6 |] %26
V:4
 x8 | x8 | x8 | x8 | x8 | x8 | x8 | [B,,,B,,]4 z4 | x8 | x8 | x8 | x8 | x8 | x8 | x8 | x8 | %16
[M:3/4] x6 |[M:1/4] x2 |[M:4/4] x8 | x8 | x8 | x8 | x8 | z4 z2 [^F,,^F,]2 | x8 |[M:3/4] x6 |] %26

